X:1
T:Buried with Christ
T:William James Kirkpatrick
T:Buried with Christ
T:Public Domain
T:Public Domain
C:William James Kirkpatrick
Z:Public Domain
%%score ( 1 2 ) ( 3 4 )
L:1/8
M:9/8
K:A
V:1 treble 
V:2 treble 
V:3 bass 
V:4 bass 
V:1
 [CE][DF][CE] | [CA]3 [EA]3 [EB][EA][EB] | [Ec]6 [Ec][DB][Ec] | [Ge]3 [FA]3 ([^DA][DG])[DA] | %4
w: 1.~Bur- ied with|Christ and raised with Him,|too, What is there|left for me * to|
w: 2.~Ris- en with|Christ my glor- i- ous|Head, Ho- li- ness|now the pathway * I|
w: 3.~Liv- ing with|Christ, Who di- eth no|more, Fol- low- ing|Christ, Who goeth * be-|
 [DB]6 [Ec][^D^B][Ec] | [CA]3 [CE]3 E[EA][Ec] | (E3 =G3) [Fe][Fd][FB] | [Ec]3 [CA]3 [DB][DF][DG] | %8
w: do? Simp- ly to|cease from strugg- ling and|Simp- * ly to walk|new- ness of life. *|
w: tread; Beau- ti- ful|thought from walk- ing there-|He * that is dead|freed from all sin. Bur-|
w: fore; Not un- der|law, I’m now un- der|Sin * is de- throned,|Christ takes its place. *|
 [CA]6 ||"^Refrain" [Cc][Cc][Cc] | [Cc]3 G3 AGF | C6 [^Ec][Ec][Ec] | [Fc]3 [FA]3 [DA][^DG][DA] | %13
w: |||||
w: ied|with Christ and|dead un- to sin; Dy-|Je- sus with- in;|ing and reign- ing day|
w: |||||
 [EB]6 [Ec][^D^B][Ec] | [CA]3 [CE]3 E[EA][Ec] | (E3 =G3) [Fe][Fd][FB] | [Ec]3 [CA]3 [DB][DF][DG] | %17
w: ||||
w: af- ter day, Guid-|ing and keep- ing all|the * way. * *||
w: ||||
 [CA]6 |] %18
w: |
w: |
w: |
V:2
 x3 | x9 | x9 | x9 | x9 | x6 E x2 | e6 x3 | x9 | x6 || x3 | x3 G3 AGF | C6 x3 | x9 | x9 | x6 E x2 | %15
w: |||||strife,|in|||||||||
w: |||||in,|is||||ing but liv- ing,|Rul-|||of|
w: |||||grace,|and|||||||||
 e6 x3 | x9 | x6 |] %18
w: |||
w: |||
w: |||
V:3
 [A,,A,][A,,A,][A,,A,] | [A,,E,]3 [C,A,]3 [E,G,][E,F,][E,G,] | A,6 A,A,A, | %3
 [E,B,]3 [F,A,]3 ([B,,F,][B,,B,])[B,,A,] | [E,G,]6 [A,,A,][A,,A,][A,,A,] | %5
 [A,,E,]3 [A,,A,]3 [C,A,][C,A,][C,A,] | [C,A,]6 [D,A,][D,A,][D,A,] | %7
 [E,A,]3 [E,A,]3 [E,G,][E,A,][E,B,] | [A,,A,]6 || [C,C][C,C][C,C] | [C,C]3 G,3 A,G,F, | %11
 C,6 [C,G,][C,G,][C,G,] | [F,A,]3 [F,C]3 [B,,B,][B,,B,][B,,A,] | [E,G,]6 [A,,A,][A,,A,][A,,A,] | %14
 [A,,A,]3 [A,,A,]3 [C,A,][C,A,][C,A,] | [C,A,]6 [D,A,][D,A,][D,A,] | %16
 [E,A,]3 [E,A,]3 [E,G,][E,A,][E,B,] | [A,,A,]6 |] %18
V:4
 x3 | x9 | A,6 A,A,A, | x9 | x9 | x9 | x9 | x9 | x6 || x3 | x3 G,3 A,G,F, | C,6 x3 | x9 | x9 | x9 | %15
 x9 | x9 | x6 |] %18

